X:1
T:BWV 564 - Toccata in C Major
T:BWV 564 - Toccata in C Major
T:Toccata Only
T:J. S. Bach
C:J. S. Bach
%%score { ( 1 4 5 7 ) | ( 2 6 ) | 3 }
L:1/8
Q:1/4=72
M:4/4
K:C
V:1 treble nm="Pipe Organ" snm="Org."
V:4 treble 
V:5 treble 
V:7 treble 
V:2 bass 
V:6 bass 
V:3 bass-8 
V:1
 z/ c/e/g/4B/4 f z/ z z/ A/B/ d/4G/4e[Q:1/4=36] z/ | %1
[Q:1/4=76] c/4B/4A/4G/4F/4E/4D/4C/4 B,/4D/4F/4[I:staff +1]B,/4 C/C,/[I:staff -1] z2 z/4 C/4D/4E/4F/4E/4D/4C/4 | %2
 D/4C/4B,/4[I:staff +1]A,/4 B,/4 G,/4A,/4B,/4 C/4[I:staff -1] D/4E/4F/4 G/4F/4E/4D/4 E/4 C/4D/4E/4 F/4 G/4A/4B/4 c/4B/4A/4G/4 A/4 G/4F/4E/4 | %3
 f/4e/4d/4c/4d/4c/4B/4A/4 B/4 G/4A/4B/4 c/4 d/4e/4f/4 g/4f/4e/4d/4 e/4 d/4c/4B/4 a/4g/4f/4e/4 f/4 e/4d/4c/4 | %4
 _b/4a/4g/4f/4 g/4 f/4e/4d/4 b/4a/4g/4f/4 g/4 f/4e/4d/4 f/4e/4d/4c/4 d/4 c/4=B/4A/4 f/4e/4d/4c/4 d/4 c/4B/4A/4 | %5
 g/4f/4e/4d/4 e/4 d/4c/4B/4 c/4B/4A/4G/4 A/4 G/4F/4E/4 F/4E/4D/4C/4 B,/4C/4D/4E/4 F/4E/4D/4C/4 B,/4[I:staff +1] A,/4G,/4F,/4 | %6
 E,/4 C/4B,/4A,/4 G,/4 F,/4E,/4D,/4 E,/4F,/4G,/4F,/4 E,/4 D,/4C,/4B,,/4 C,/4G,,/4A,,/4B,,/4 C,/4 D,/4E,/4F,/4 G,/4 F,/4E,/4D,/4 E,/4 F,/4G,/4A,/4 | %7
 _B,/4 G,/4A,/4_B,/4 C/4[I:staff -1] D/4E/4F/4 G/4 F/4E/4D/4 E/4 F/4G/4A/4 _B/4G/4E/4C/4[I:staff +1] G,/4E,/4C,/[I:staff -1] z2 | %8
 z8 | x8 | %10
 f/4e/4d/4c/4 B/4A/4G/4F/4 E/4D/4C/4B,/4 g/4f/4e/4d/4 f/4e/4d/4c/4B/4A/4G/4F/4 z d/4A/4G/4F/4 | %11
[Q:1/4=72] E/4[Q:1/4=67]G/4[Q:1/4=66]c/4[Q:1/4=65]"^.3"G/4[Q:1/4=64]"^.8"E/4[Q:1/4=64]"^.3"G/4[Q:1/4=64]E/4[Q:1/4=63]"^.6"B,/4[Q:1/4=63]"^.3" C/4[Q:1/4=63]"^.1"E/4[Q:1/4=62]"^.8"C/4[Q:1/4=62]"^.6"[I:staff +1]G,/4[Q:1/4=62]"^.4" E,/4[Q:1/4=62]"^.2"G,/4[Q:1/4=62]E,/4[Q:1/4=61]"^.8"C,/4[Q:1/4=61]"^.6" E,/4[Q:1/4=61]"^.5" G,/4[Q:1/4=61]"^.3"C/4[Q:1/4=61]"^.2"G,/4[Q:1/4=61] E,/4[Q:1/4=60]"^.9" C,/4[Q:1/4=60]"^.7"G,,/4[Q:1/4=60]"^.6"C,/4[Q:1/4=60]"^.5" C,,[Q:1/4=60][I:staff -1] z | %12
[Q:1/4=76] z8 | z8 | z8 | z8 | z8 | z8 | z8 | z8 | z8 | z8 | z8 | z8 | z8 | z8 | z8 | z8 | z8 | %29
 z8 | z4 z2 z z/ f/ | e>G A/B/4c/4B/c/4d/4 c/d/4e/4d/e/4f/4 e/f/4g/4f/g/4a/4 | g z z f- fe d2 | %33
 c z/ e/ fd eBcd | e/g/c' z/ a/d'/a/ bc' z/ a/b | c' z/ f/ e/g/c/e/ B/d/G/ z/ c>c | d z e>d cB A2 | %37
 G>D E/^F/4G/4F/G/4A/4 G/A/4B/4A/B/4c/4 B/c/4d/4c/d/4e/4 | d z z c- cB A2 | G z/ B/ cA B^FGA | %40
 B/d/g z/ e/a/e/ ^fg z/ e/f | g z/ c/ B/d/G/B/ ^F/A/D/ z/ G>G | A z B>B cd/e/ BA/G/ | %43
 G z/ c/ B/d/G/B/ ^F/A/D/ z/ G>G | A z B z z B e>e | A z/ g/ f/a/d/f/ ^c/e/A/ z/ d>d | %46
 e z f z z f e=b/e/ | e z/ d/ c/e/A/c/ ^G/B/E/ z/ A>A | B z c z z c B^f/B/ | %49
 B z/ E/ ^F/^G/4A/4G/A/4B/4 A/B/4c/4B/c/4d/4 c/d/4e/4d/e/4=f/4 | e z z d- dc B2 | %51
 A z/ c/ dB c^GAB | c/e/a z/ ^f/b/f/ ^ga z/ f/g | a z/ d/ c/e/A/c/ ^G/B/E/ z/ A>A | %54
 B z c z z/ c/d/e/ f z | z/ B/c/d/ e z z/ e/^f/^g/ a z | z/ b/a/^g/ a z/ ^g/ af/B/ cB/A/ | %57
 A z z2 z z/ d/ c/e/A/a/ | ^g/b/e/ z/ a>=g f/a/d/ z/ z2 | c z c z z/ B/ z/ e/- e^d | %60
 e z/ B,/ ^C/^D/4E/4D/E/4^F/4 E/F/4G/4F/G/4A/4 G/A/4B/4A/B/4=c/4 | B z z A- AG ^F2 | %62
 E z/ G/ A^F G^DE^F | G/B/e z/ ^c/^f/c/ ^de z/ c/d | e z/ a/ g/b/e/g/ ^d/^f/B/ z/ e>e | %65
 ^f z g>g ag/^f/ gf/e/ | e z/ ^f/ g/b/^d/f/ e z/ d/ e/g/f/a/ | %67
 g z/ ^f/ ^g/a/g/b/ a z/ B/ c/e/^G/B/ | A z/ ^G/ A/c/B/d/ c z/ B/ c/e/d/f/ | %69
 e/g/f/a/ g/a/f/e/ d z/ ^F/ G/B/A/c/ | B z/ A/ Bc d z z2 | z gg>g f z z2 | z ff>f e z z e | %73
 fedc fedc | f2 z/ d/e/f/ gc/d/ B/d/c/B/ | c z/ B/ c/e/d/f/ e z/ d/ e/g/B/d/ | %76
 c z/ G/ A/B/4c/4B/c/4d/4 c/d/4e/4d/e/4f/4 e/f/4g/4f/g/4a/4 | g z z f- fe d2 | c z/ e/ fd eBcd | %79
 e/g/c' z/ a/d'/a/ bc' z/ a/b | c' z/ _b/ a/c'/f/a/ e/g/c/ z/ f>f | %81
 g z/ _B/ _A/c/F/A/ E/G/C/ z/ z2 | %82
 z4[Q:1/4=51]"^.3" z[Q:1/4=50]"^.2" f[Q:1/4=49]"^.4" B>[Q:1/4=48][Q:1/4=48]"^.4"B[Q:1/4=72][Q:1/4=55]"^.7"[Q:1/4=53]"^.9"[Q:1/4=52]"^.8"[Q:1/4=52] | %83
[Q:1/4=48]"^.1" c8 |] %84
V:2
 z8 | x8 | z8 | z8 | z8 | x8 | x8 | z8 | %8
 C,/4D,/4E,/4F,/4E,/4D,/4C,/4D,/4 E,/4F,/4E,/4D,/4C,/4D,/4E,/4F,/4 G,/4F,/4E,/4F,/4G,/4A,/4G,/4F,/4 E,/4F,/4G,/4A,/4G,/4F,/4E,/4F,/4 | %9
 G,/4A,/4_B,/4A,/4G,/4A,/4B,/4C/4 B,/4A,/4G,/4A,/4B,/4[I:staff -1] C/4D/4E/4 F/4G/4A/4E/4F/4[I:staff +1] C/4A,/4F,/4 z2 | %10
 z8 | x8 | x8 | z8 | z8 | z8 | z8 | z8 | z8 | z8 | z8 | z8 | z8 | z8 | z8 | z8 | z8 | z8 | z8 | %29
 z8 | z4 z2 z z/ D/ | C>E FD EB,CD | x4 z/ D/E/C/ G>G | %33
 E x/[K:treble] G,/ A,/B,/4C/4B,/C/4D/4 C/D/4E/4D/E/4F/4 E/F/4G/4F/G/4A/4 | G z z F- FEDG | %35
 C/G/c/ z/ z2 z z/ F/ E/G/C/E/ | B,/E/G,/ z/ C>B, A,B,/C/ D>C | B,3/2[K:bass] B,/ CA, B,^F,G,A, | %38
 x4 z/ A,/B,/G,/ D>D | B, x E,/^F,/4G,/4F,/G,/4A,/4 G,/A,/4B,/4A,/B,/4C/4 B,/C/4D/4C/D/4E/4 | %40
 D z z C- CB,A,D | G,/D/G/ z/ z2 z z/ C/ B,/D/G,/B,/ | ^F,/A,/D,/ z/ G,>G, G,G,G,^F, | %43
 G, z/ z/ z2 z z/ C/ B,/D/G,/B,/ | ^F,/A,/D,/ z/ G, z z B, A,>A, | %45
 A, z z2[K:treble] z z/ G/ F/A/D/F/ | ^C/E/A,/ z/ D z z D E>E | E z z2[K:bass] z z/ D/ C/E/A,/C/ | %48
 ^G,/B,/E,/ z/ A, z z A, B,>B, | B, z/ C/ DB, C^G,A,B, | x4 z/ B,/C/A,/ E>D | %51
 C x ^F,/^G,/4A,/4G,/A,/4B,/4 A,/B,/4C/4B,/C/4D/4[K:treble] C/D/4E/4D/E/4=F/4 | E z z D- DCB,E | %53
 A,/E/A/ z/ z2[K:bass] z z/ D/ C/E/A,/C/ | ^G,/B,/E,/ z/ A, z z2 z/ E/D/C/ | %55
 B, z z/ D/C/B,/ A, z[K:treble] z/ =G/=F/E/ | D z z/ F/E/D/ EFED | %57
 C z/[K:bass] D/ C/E/A,/ z/ E^G,A,=F, | E, z/ D/ ^C/E/A,/ z/[K:treble] DF G z/ F/ | %59
 E/G/C/[K:bass] B,/ A,/C/^F,/E,/ ^D,E,A,,B,, | E,, z/ G,/ A,^F, G,^D,E,F, | %61
 x4 z/ ^F,/G,/E,/ B,>A, | %62
 G, x ^C,/^D,/4E,/4D,/E,/4^F,/4 E,/F,/4G,/4F,/G,/4A,/4 G,/A,/4B,/4A,/B,/4=C/4 | %63
 B, z z A,- A,G,^F,B, | E,/B,/E/ z/ z2 z[K:treble] z/ A/ G/B/E/G/ | ^D/^F/B,/ z/ E>E EEE^D | %66
 E z/ ^D/ E/G/^F/A/ G z/ F/ G/B/D/F/ | E z/ ^D/ E/=F/B,/=D/ E z x2 | %68
 C z/ B,/ C/E/^G,/B,/ A, z/ G,/ A,/C/B,/D/ | C/E/D/F/ E/F/D/C/ B,[K:bass] z/ A,/ B,/D/^F,/A,/ | %70
 G, z/ ^F,/ G,/B,/A,/C/ B, z z2 | z EE>E F z z2 | z DD>D E z z C | CEA,C DEB,C | %74
 D2[K:treble] z/ B,/C/D/ EE/F/ D/F/E/D/ | C z/ D/ E/G/B,/D/ C z/ B,/ C/E/D/F/ | E z/ E/ FD EB,CD | %77
 x4[K:bass] z/ D/E/C/ G>G | %78
 E x/ G,/ A,/B,/4C/4B,/C/4D/4[K:treble] C/D/4E/4D/E/4F/4 E/F/4G/4F/G/4A/4 | G z z F- FEDG | %80
 C/G/c/ z/ z2 z z/ _B/ A/c/F/A/ | E/A/C/ z/ z2[K:bass] z z/ _B,/ _A,/C/F,/A,/ | %82
 E,/G,/C,/ z/ z2 z F FD | C8 |] %84
V:3
 z8 | z8 | z8 | z8 | z8 | z8 | z8 | z4 C,, z z2 | z8 | z4 C,, z z2 | z8 | C,, z z2 z4 | %12
 z/ C,/G,/G,,/ C, z C,/E,/D,/F,/ E,/G,/^F,/A,/ | G,/B,/A,/C/ B,/D/G, z z/ C/ B,/D/A,/C/ | %14
 B,/D/G, z z/ C/ B,/D/G,/B,/ A,/C/^F,/A,/ | G,/A,/B,, z z/ A,/ G,/B,/^F,/A,/ G,/A,/B,, | %16
 z z/ G,/ =F,/G,/E,/G,/ F,/G,/B,,/G,/ F,/G,/E,/G,/ | F,/G,/B,,/F,/ E,/F,/D,/F,/ E,/G,/C, z z/ F,/ | %18
 E,/F,/D,/F,/ E,/G,/C, z z/ _B,/ A,/B,/G,/B,/ | %19
 A,/C/F,/A,/ G,/A,/E,/G,/ F,/A,/D,/F,/ E,/F,/C,/E,/ | %20
 D,/F,/B,,/G,/ F,/G,/D,/F,/ E,/G,/C,/C/ ^F,/A,/D,/C/ | %21
 ^F,/A,/D,/C/ A,/C/F,/A,/ G,/B,/D,/D/ G,/B,/D,/D/ | %22
 B,/D/G,/B,/ D,/G,/G,,/D/ B,/D/G,/B,/ D,/G,/G,,/G,/ | %23
 (3F,/G,/F,/ (3E,/F,/E,/ D,/F,/E,/F,/ (3D,/E,/D,/ (3C,/D,/C,/ PB,,>D, | %24
 C,/E,/D,/F,/ E,/G,/B,,/D,/ (C,/D,/4E,/4)(D,/E,/4F,/4) E,/G,/C,/E,/ | %25
 D,/F,/E,/G,/ F,/A,/^C,/E,/ (D,/E,/4F,/4)(E,/F,/4G,/4) F,/A,/D,/F,/ | %26
 (E,/F,/4G,/4)(F,/G,/4A,/4) B,,/G,/=C,/D,/ G,,/E,/MD, C,>_B, | %27
 E,/G,/C,/_B,/ E,/G,/C,/B,/ A,/C/F,/G,/ E,/G,/C,/C/ | %28
 (3_B,/C/B,/ (3A,/B,/A,/ (3G,/A,/G,/ (3F,/G,/F,/ (3E,/F,/E,/ (3D,/E,/D,/ (3C,/D,/C,/ (3_B,,/C,/B,,/ | %29
 (3A,,/_B,,/A,,/ (3G,,/A,,/G,,/ F,,/G,,/4F,,/4E,,/F,,/ G,,>^F, G,/>F,/G,/>F,/ | %30
 G,/>^F,/G,/>F,/ G,/4=F,/4E,/4F,/4G,/4F,/4E,/4F,/4 G,/>B,,/C,/>=F,,/ G,,>G,, | C,C,, z2 z4 | %32
 C, z z2 z4 | C, z z2 z4 | C, z z2 z4 | C, z z2 z4 | z z/ F,/ E,/G,/C,/E,/ A,,/D,/G,, D,D,, | %37
 G,, z z2 z4 | G,, z z2 z4 | G,, z z2 z4 | G,, z z2 z4 | G,, z z2 z4 | %42
 z z/ C/ B,/D/G,/B,/ E,C,D,D,, | G,, z z2 z4 | %44
 z z/ C,/ B,,/D,/G,,/B,,/ E,,E, (^C,/4E,/4C,/4E,/4C,/4E,/4C,/) | D,D,, z2 z4 | %46
 z z/ G,/ F,/A,/D,/F,/ _B,,_B, (^G,/4=B,/4G,/4B,/4G,/4B,/4G,/) | A,A,, z2 z4 | %48
 z z/ D,/ C,/E,/A,,/C,/ F,,F, (^D,/4^F,/4D,/4F,/4D,/4F,/4D,/) | E,E,, z2 z4 | A,, z z2 z4 | %51
 A,, z z2 z4 | A,, z z2 z4 | A,, z z2 z4 | z z/ D,/ C,/E,/A,,/C,/ D,, z z D, | %55
 E, z z E, A, z z A, | D z z E, A,D,E,E,, | A,, z z2 z4 | z8 | z8 | E,, z z2 z4 | E,, z z2 z4 | %62
 E,, z z2 z4 | E,, z z2 z4 | E,, z z2 z4 | z z/ A,/ G,/B,/E,/G,/ C,A,B,B,, | %66
 E,E,, z2 z/ E,/E,, z2 | z/ E,/E,, z2 z/ A,/A,, z2 | z/ A,/A,, z2 z/ A,/A,, z2 | %69
 z A,E,F, z/ G,/G,, z/ z3/2 | z/ G,/G,, z2 z/ G,/G,,/G,/ E,/=F,/D,/E,/ | %71
 ^C,/D,/B,,/D,/ C,/D,/B,,/C,/ D,/F,/E,/F,/ D,/E,/=C,/D,/ | %72
 B,,/C,/A,,/C,/ B,,/C,/A,,/B,,/ C,/E,/D,/E,/ C,/D,/B,,/C,/ | %73
 A,,/A,/G,/A,/ F,/G,/E,/F,/ D,/E,/C,/D,/ B,,/C,/A,,/B,,/ | G,,2 z2 z/ D,/E,/C,/ G,G,, | %75
 z/ C,/C,, z2 z/ C,/C,, z2 | z/ C,/C,, z2 z4 | C,, z z2 z4 | C,, z z2 z4 | C,, z z2 z4 | %80
 C,, z z2 z4 | C,, z z2 z4 | z z/ _B,,/ _A,,/C,/F,,/A,,/ C,,4 | C,,8 |] %84
V:4
 x8 | x8 | x8 | x8 | x8 | x8 | x8 | x8 | x8 | x8 | x6 E/4D/4C/4B,/4-B, | C/ z/ z x6 | x8 | x8 | %14
 x8 | x8 | x8 | x8 | x8 | x8 | x8 | x8 | x8 | x8 | x8 | x8 | x8 | x8 | x8 | x8 | x15/2 B/ | %31
 c z x6 | z/ G/c z/ A/d/A/ Bc- c/A/B | G z/ B/ cG GFGB | c z/ e/ f>d z/ d/e/c/ dd | e z z2 z2 G>G | %36
 G z G>G G/^F/G- G/E/F | D z x6 | z/ D/G z/ E/A/E/ ^FG G/E/F | D z/ ^F/ GD DCD^F | %40
 G z/ B/ c>A z/ A/B/G/ AA | B z z2 z2 D>D | D z D>D EEDC | B, z z2 z2 D>D | D z D z z E E>E | %45
 D z z2 z2 A>A | A z A z z _B =B>B | A z z2 z2 E>E | E z E z z F ^F>F | E z x6 | %50
 z/ E/A z/ ^F/B/F/ ^GA- A/F/G | E z/ ^G/ AE EDE^G | A z/ c/ d>B z/ B/c/A/ BB | c z z2 z2 E>E | %54
 E z E z z2 z/ c/B/A/ | ^G z z/ ^G/A/B/ c z z/ ^c/d/e/ | =f z z/ d/c/B/ cAA^G | %57
 E z z z/ A/ ^G/B/E/ z/ E[I:staff +1]D | E[I:staff -1]e- e2 z z/ =c/ B/d/G/ z/ | %59
 G z A z/ G/ ^FG c/A/^F/A/ | G/B/E/ z/ z2 x4 | z/ B,/E z/ ^C/^F/C/ ^DE- E/C/D | %62
 B, z/ ^D/ EB, B,A,B,^D | E z/ G/ A>^F z/ ^F/G/E/ FF | G z/ x/ z2 z2 B>B | B z B>B AcBA | %66
 G z z2 B z z2 | B z z2 z4 | E x z2 E z z2 | z4 G z z2 | z z/ B,/ D/G/^F/A/ G z z2 | %71
 z AA>A A z z2 | z GG>G G z z G | FGDE FGDF | G2 z2 z2 z z/ F/ | E z z2 G z z2 | G z x6 | %77
 z/ G/c z/ A/d/A/ Bc- c/A/B | G z/ B/ cG GFGB | c z/ e/ f>d z/ d/e/c/ dd | e z z2 z2 c>c | c z x6 | %82
 z4 z _A A"^.7"G/F/ | [EG]8 |] %84
V:5
 x8 | x8 | x8 | x8 | x8 | x8 | x8 | x8 | x8 | x8 | x8 | x8 | x8 | x8 | x8 | x8 | x8 | x8 | x8 | %19
 x8 | x8 | x8 | x8 | x8 | x8 | x8 | x8 | x8 | x8 | x8 | x15/2 G/ | G x7 | x8 | x8 | x4 gg f>f | %35
 g x7 | x8 | x8 | x8 | x8 | x4 dd c>c | d x7 | x8 | x8 | x5 G G>G | =F x7 | x5 d d>d | =c z z2 z4 | %48
 x5 A A>A | ^G z x6 | x8 | x8 | x4 ee d>d | e x7 | x8 | x8 | x8 | x8 | x8 | x8 | x8 | x8 | x8 | %63
 x4 BB A>A | B x7 | x8 | x8 | x8 | x8 | x8 | x8 | x ee>e d z z2 | x dd>d c z z c | cBAG BcGA | %74
 B2 z2 z G G2 | G x7 | x8 | x8 | x8 | x4 gg f>f | g x7 | x8 | x5 c x2 | x8 |] %84
V:6
 x8 | x8 | x8 | x8 | x8 | x8 | x8 | x8 | x8 | x8 | x8 | x8 | x8 | x8 | x8 | x8 | x8 | x8 | x8 | %19
 x8 | x8 | x8 | x8 | x8 | x8 | x8 | x8 | x8 | x8 | x8 | x15/2 G,/ | G, z x6 | %32
 E>E, F,>D, G, z z G, | C/G,/C,/[K:treble] x13/2 | x8 | x8 | x8 | x3/2[K:bass] x13/2 | %38
 B,>B,, C,>A,, D, z z D, | G,/D,/G,,/D,/ x6 | x8 | x8 | x8 | x8 | x8 | x4[K:treble] x4 | x8 | %47
 x4[K:bass] x4 | x8 | x8 | C>C, D,>B,, E, z z E, | A,/E,/A,,/E,/ x4[K:treble] x2 | x8 | %53
 x4[K:bass] x4 | x8 | x6[K:treble] x2 | x8 | x3/2[K:bass] x13/2 | x4[K:treble] x4 | %59
 x3/2[K:bass] x13/2 | x8 | G,>G,, A,,>^F,, B,, z z B,, | E,/B,,/E,,/B,,/ x6 | x8 | %64
 x5[K:treble] x3 | x8 | x8 | x4 C z/ ^G,/ A,/C/B,/D/ | x8 | x9/2[K:bass] x7/2 | x8 | %71
 z A,A,>A, D z z2 | z G,G,>G, C x3 | x8 | x2[K:treble] x6 | x8 | x8 | %77
 E3/2[K:bass] E,/ F,>D, G, z z G, | C/G,/C,/ x5/2[K:treble] x4 | x8 | x8 | x4[K:bass] x4 | %82
 x5 C DG, | G,8 |] %84
V:7
 x8 | x8 | x8 | x8 | x8 | x8 | x8 | x8 | x8 | x8 | x8 | x8 | x8 | x8 | x8 | x8 | x8 | x8 | x8 | %19
 x8 | x8 | x8 | x8 | x8 | x8 | x8 | x8 | x8 | x8 | x8 | x8 | x8 | x8 | x8 | x8 | x8 | x8 | x8 | %38
 x8 | x8 | x8 | x8 | x8 | x8 | x8 | x8 | x8 | x8 | x8 | x8 | x8 | x8 | x8 | x8 | x8 | x8 | x8 | %57
 x8 | x8 | x8 | x8 | x8 | x8 | x8 | x8 | x8 | x8 | x8 | x8 | x8 | x8 | x8 | x8 | x8 | d2 x6 | x8 | %76
 x8 | x8 | x8 | x8 | x8 | x8 | x8 | x8 |] %84

